packages/radix-icons/twoTone/15/gear.svg

<svg width="15" height="15" fill="none" xmlns="http://www.w3.org/2000/svg">
  <path
    fill-rule="evenodd"
    clip-rule="evenodd"
    d="M7.07093 1.50024H7.92808L8.28354 3.06817C8.94268 3.18388 9.55242 3.44304 10.0794 3.81227L11.4397 2.95478L12.0458 3.56087L11.1882 4.92119C11.5573 5.44799 11.8164 6.05751 11.9321 6.71639L13.5 7.07183V7.92898L11.932 8.28443C11.8162 8.94343 11.557 9.55303 11.1878 10.0799L12.0452 11.4399L11.4391 12.046L10.0788 11.1886C9.55199 11.5576 8.94244 11.8166 8.28354 11.9323L7.92808 13.5002H7.07093L6.71542 11.932C6.05691 11.8162 5.44774 11.5572 4.92119 11.1884L3.56051 12.0461L2.95442 11.44L3.81214 10.0794C3.4431 9.55267 3.18403 8.94327 3.06825 8.28451L1.5 7.92898V7.07183L3.06819 6.71631C3.18389 6.05766 3.44283 5.44835 3.81171 4.92167L2.95383 3.56079L3.55992 2.9547L4.92063 3.81246C5.44731 3.44337 6.05668 3.18425 6.71542 3.0684L7.07093 1.50024Z"
    fill="currentColor"
    opacity=".2"
  />
  <path
    fill-rule="evenodd"
    clip-rule="evenodd"
    d="M7.07096 0.650238C6.67392 0.650238 6.32978 0.925097 6.24199 1.31231L6.00391 2.36249C5.62495 2.47269 5.26344 2.62361 4.92449 2.81008L4.01322 2.23564C3.67735 2.02391 3.23965 2.0729 2.95891 2.35365L2.35281 2.95974C2.07207 3.24049 2.02308 3.67819 2.2348 4.01406L2.80944 4.92563C2.6231 5.26451 2.4723 5.62594 2.3622 6.0048L1.31209 6.24286C0.924882 6.33065 0.650024 6.67479 0.650024 7.07183V7.92897C0.650024 8.326 0.924882 8.67015 1.31209 8.75793L2.36231 8.99603C2.47248 9.375 2.62337 9.73653 2.80982 10.0755L2.23539 10.9867C2.02366 11.3226 2.07265 11.7603 2.3534 12.0411L2.95949 12.6472C3.24024 12.9279 3.67794 12.9769 4.01381 12.7652L4.92513 12.1907C5.26389 12.377 5.62519 12.5278 6.00391 12.6379L6.24199 13.6881C6.32978 14.0753 6.67392 14.3502 7.07096 14.3502H7.9281C8.32514 14.3502 8.66928 14.0753 8.75706 13.6881L8.99506 12.6383C9.37417 12.5282 9.73582 12.3773 10.0749 12.1909L10.9858 12.7651C11.3217 12.9768 11.7594 12.9278 12.0401 12.6471L12.6462 12.041C12.927 11.7602 12.976 11.3225 12.7642 10.9867L12.1902 10.076C12.3768 9.73689 12.5278 9.37515 12.6381 8.99594L13.6879 8.75793C14.0751 8.67015 14.35 8.326 14.35 7.92897V7.07183C14.35 6.67479 14.0751 6.33065 13.6879 6.24286L12.6382 6.00488C12.528 5.62579 12.3771 5.26415 12.1906 4.92508L12.7648 4.01415C12.9766 3.67827 12.9276 3.24057 12.6468 2.95983L12.0407 2.35374C11.76 2.07299 11.3223 2.024 10.9864 2.23572L10.0755 2.80991C9.73627 2.62329 9.3744 2.47229 8.99506 2.36209L8.75706 1.31231C8.66928 0.925096 8.32514 0.650238 7.9281 0.650238H7.07096ZM4.92065 3.81245C5.44733 3.44337 6.0567 3.18424 6.71544 3.0684L7.07096 1.50024H7.9281L8.28356 3.06816C8.9427 3.18387 9.55244 3.44303 10.0794 3.81226L11.4397 2.95478L12.0458 3.56087L11.1883 4.92118C11.5573 5.44799 11.8164 6.0575 11.9321 6.71639L13.5 7.07183V7.92897L11.9321 8.28443C11.8163 8.94342 11.5571 9.55302 11.1878 10.0799L12.0452 11.4399L11.4391 12.046L10.0789 11.1886C9.55201 11.5576 8.94247 11.8166 8.28356 11.9323L7.9281 13.5002H7.07096L6.71544 11.932C6.05694 11.8162 5.44776 11.5572 4.92122 11.1884L3.56053 12.0461L2.95444 11.44L3.81216 10.0794C3.44313 9.55267 3.18406 8.94327 3.06828 8.28451L1.50002 7.92897V7.07183L3.06821 6.71631C3.18391 6.05766 3.44285 5.44834 3.81173 4.92167L2.95386 3.56078L3.55995 2.95469L4.92065 3.81245ZM9.02505 7.5001C9.02505 8.34229 8.34232 9.02501 7.50013 9.02501C6.65795 9.02501 5.97522 8.34229 5.97522 7.5001C5.97522 6.65792 6.65795 5.97519 7.50013 5.97519C8.34232 5.97519 9.02505 6.65792 9.02505 7.5001ZM9.92505 7.5001C9.92505 8.83934 8.83938 9.92502 7.50013 9.92502C6.16089 9.92502 5.07522 8.83934 5.07522 7.5001C5.07522 6.16086 6.16089 5.07519 7.50013 5.07519C8.83938 5.07519 9.92505 6.16086 9.92505 7.5001Z"
    fill="currentColor"
  />
</svg>

<svg width="15" height="15" fill="none" xmlns="http://www.w3.org/2000/svg">
  <path
    fill-rule="evenodd"
    clip-rule="evenodd"
    d="M7.07 1.5h.858l.356 1.568c.659.116 1.268.375 1.795.744l1.36-.857.607.606-.858 1.36c.37.527.628 1.137.744 1.795l1.568.356v.857l-1.568.355a4.476 4.476 0 01-.744 1.796l.857 1.36-.606.606-1.36-.857a4.476 4.476 0 01-1.795.743L7.928 13.5h-.857l-.356-1.568a4.477 4.477 0 01-1.794-.744l-1.36.858-.607-.606.858-1.36a4.476 4.476 0 01-.744-1.795L1.5 7.929v-.857l1.568-.356a4.476 4.476 0 01.744-1.794L2.954 3.56l.606-.606 1.36.857a4.476 4.476 0 011.795-.744L7.071 1.5z"
    fill="currentColor"
    opacity=".2"
  />
  <path
    fill-rule="evenodd"
    clip-rule="evenodd"
    d="M7.071.65a.85.85 0 00-.829.662l-.238 1.05c-.379.11-.74.262-1.08.448l-.91-.574a.85.85 0 00-1.055.118l-.606.606a.85.85 0 00-.118 1.054l.574.912c-.186.339-.337.7-.447 1.079l-1.05.238a.85.85 0 00-.662.829v.857a.85.85 0 00.662.829l1.05.238c.11.379.261.74.448 1.08l-.575.91a.85.85 0 00.118 1.055l.606.606a.85.85 0 001.055.118l.911-.574c.339.186.7.337 1.079.447l.238 1.05a.85.85 0 00.829.662h.857a.85.85 0 00.83-.662l.237-1.05c.38-.11.74-.26 1.08-.447l.91.574a.85.85 0 001.055-.118l.606-.606a.85.85 0 00.118-1.054l-.574-.911c.187-.34.338-.7.448-1.08l1.05-.238a.85.85 0 00.662-.829v-.857a.85.85 0 00-.662-.83l-1.05-.237c-.11-.38-.26-.74-.447-1.08l.574-.91a.85.85 0 00-.118-1.055l-.606-.606a.85.85 0 00-1.055-.118l-.91.574a5.32 5.32 0 00-1.08-.448l-.239-1.05A.85.85 0 007.928.65h-.857zm-2.15 3.162a4.476 4.476 0 011.794-.744L7.071 1.5h.857l.356 1.568c.659.116 1.268.375 1.795.744l1.36-.857.607.606-.858 1.36c.37.527.628 1.136.744 1.795l1.568.356v.857l-1.568.355a4.475 4.475 0 01-.744 1.796l.857 1.36-.606.606-1.36-.857a4.477 4.477 0 01-1.795.743L7.928 13.5h-.857l-.356-1.568a4.476 4.476 0 01-1.794-.744l-1.36.858-.607-.606.858-1.36a4.476 4.476 0 01-.744-1.795L1.5 7.929v-.857l1.568-.356a4.475 4.475 0 01.744-1.794L2.954 3.56l.606-.606 1.36.857zM9.025 7.5a1.525 1.525 0 11-3.05 0 1.525 1.525 0 013.05 0zm.9 0a2.425 2.425 0 11-4.85 0 2.425 2.425 0 014.85 0z"
    fill="currentColor"
  />
</svg>
